X:165
T:Patrick Maloney's Favorite
S:John Williams - Steam
M:6/8
L:1/8
R:jig
K:G
G3 BGG | dGG BAG | A2G ABd | ege dBA |
G3 BAG | ded BAG | ABc B2A |1 GBE EDE :|2 GED E2B |:
dee ede | faf ged | e3 gfe | dBA B2B |
e3 ede | faf ged | ABc B2A |1 GED E2B :|2 GBE EDE |]
